X:26
T:Gypsie Laddie, The
T:Wae's Me For Prince Charlie
C:arr. Carlo Minasi
M:C
L:1/8
B:Chappell's One Hundred Scotch Melodies
B:Arranged for the Concertina by Carlo Minasi
Q:"Andante  "1/4=140
Z:Peter Dunk 2012
K:C
!p!G|[G2E2]([GE][AF] [c3E3]B)|([AF]GAc) ([D3B3G3] e)|\
([G3E3][AF] [cE][eG][dF][cE])|([A4F4] [G2E2]) z [GE]|
%
([G2E2] [GE][AF] c3 d) &x4 E2 FG|([AF]GAc) ([D3B3G3] e)|\
([G3E3][AF] [cE][eG][dF][cE])|([A4F4C4] [G2E2C2]) z c|
%
([d2B2G2] [dF]e [g3c3E3] [acF])|([geG]>e[dBG]>e [c2E2] ze)|\
([d3B3][ec][g2e2] [a2f2])|([e4c4G4][d2B2G2]) zc|
%
([d2B2G2] [dF]e [g3c3E3] [acF])|([geG]edc [d2B2G2]) ze|\
([G3E3][AF] [cE][eG][dF][cE])|([A4F4C4] [G2E2C2]) z||

